src/assets/svg/Logo.svg

<svg width="120" height="40" viewBox="0 0 120 40" fill="none" xmlns="http://www.w3.org/2000/svg">
<g clip-path="url(#clip0_1404_62154)">
<path d="M25.1848 12.2589L17.5505 19.9094L15.3355 22.1272L4.20612 33.2788L1.99194 31.061L13.1214 19.9094L15.337 17.6914L22.9714 10.041L25.1848 12.2589Z" fill="white"/>
<path d="M31.0408 18.1266C32.0362 19.1239 32.0362 20.7396 31.0408 21.7371L13.6699 39.1412C12.6724 40.1407 11.0535 40.1407 10.056 39.141L4.20605 33.2789L25.1848 12.2588L31.0408 18.1266Z" fill="url(#paint0_linear_1404_62154)"/>
<path d="M22.9713 10.0402L1.99188 31.0603L0.746393 29.8119C-0.248911 28.8144 -0.248781 27.1988 0.746682 26.2013L18.117 8.79742C19.1145 7.79806 20.7331 7.79799 21.7305 8.79726L22.9713 10.0402Z" fill="url(#paint1_linear_1404_62154)"/>
<path d="M27.6616 25.1984L20.0156 17.5596L17.7989 15.3434L6.65356 4.20763L8.87015 1.99219L20.0156 13.128L22.2322 15.3449L29.8782 22.9836L27.6616 25.1984Z" fill="white"/>
<path d="M21.7978 31.0581C20.8008 32.0541 19.1861 32.0541 18.1893 31.0581L0.7951 13.6773C-0.20387 12.6792 -0.20383 11.0594 0.795187 10.0613L6.6541 4.20801L27.6621 25.1988L21.7978 31.0581Z" fill="url(#paint2_linear_1404_62154)"/>
<path d="M29.8787 22.9845L8.87061 1.99302L10.1182 0.746821C11.1151 -0.249054 12.7298 -0.248923 13.7266 0.747109L31.1207 18.1275C32.1195 19.1254 32.1195 20.7448 31.1209 21.743L29.8787 22.9845Z" fill="url(#paint3_linear_1404_62154)"/>
<path d="M45.121 28.3617C43.8813 28.3617 42.7655 28.0896 41.7738 27.5457C40.7975 26.9862 40.0305 26.2167 39.4725 25.2374C38.9147 24.2583 38.6357 23.1548 38.6357 21.9269C38.6357 20.699 38.9147 19.5955 39.4725 18.6162C40.0305 17.637 40.7975 16.8754 41.7738 16.3314C42.7655 15.7719 43.8813 15.4921 45.121 15.4921C46.3764 15.4921 47.4922 15.7719 48.4684 16.3314C49.4448 16.8754 50.2041 17.637 50.7464 18.6162C51.2889 19.5799 51.5601 20.6835 51.5601 21.9269C51.5601 22.2844 51.5368 22.6496 51.4903 23.0226H42.0295C42.2154 23.7532 42.5797 24.3205 43.122 24.7246C43.6645 25.1287 44.3307 25.3308 45.121 25.3308C45.648 25.3308 46.1284 25.2374 46.5623 25.051C47.0116 24.8489 47.3604 24.5848 47.6083 24.2583H51.2113C50.7774 25.5173 50.0104 26.5198 48.9101 27.2658C47.8098 27.9964 46.5468 28.3617 45.121 28.3617ZM48.236 20.7612C48.05 20.0617 47.6859 19.5176 47.1434 19.129C46.6011 18.7249 45.927 18.523 45.121 18.523C44.3462 18.523 43.6876 18.7249 43.1453 19.129C42.6183 19.5176 42.2542 20.0617 42.0527 20.7612H48.236Z" fill="#1E1E1E"/>
<path d="M60.8576 28.3618C59.2925 28.3618 57.8822 28.0043 56.627 27.2893C55.3718 26.5588 54.3878 25.5563 53.6749 24.2816C52.9775 22.9916 52.6289 21.5461 52.6289 19.9452C52.6289 18.3443 52.9775 16.9066 53.6749 15.632C54.3878 14.342 55.3718 13.3395 56.627 12.6245C57.8822 11.894 59.2925 11.5287 60.8576 11.5287C62.2059 11.5287 63.438 11.7929 64.5536 12.3214C65.6849 12.8498 66.6303 13.6037 67.3896 14.5829C68.149 15.5621 68.6603 16.6967 68.9238 17.9868H65.2743C64.9643 17.0698 64.4142 16.3393 63.6239 15.7952C62.849 15.2512 61.9503 14.9792 60.9274 14.9792C60.0287 14.9792 59.2227 15.1968 58.51 15.632C57.8126 16.0517 57.2624 16.6423 56.8595 17.404C56.4566 18.15 56.2551 18.9972 56.2551 19.9452C56.2551 20.8934 56.4566 21.7482 56.8595 22.5098C57.2624 23.2559 57.8126 23.8465 58.51 24.2816C59.2227 24.7015 60.0287 24.9113 60.9274 24.9113C61.9658 24.9113 62.88 24.6236 63.6703 24.0486C64.4761 23.4734 65.0341 22.7041 65.3441 21.7404H68.9471C68.6991 23.0616 68.1954 24.2273 67.4361 25.2375C66.6922 26.2323 65.747 27.0018 64.6002 27.5457C63.469 28.0897 62.2214 28.3618 60.8576 28.3618Z" fill="#1E1E1E"/>
<path d="M76.0909 28.3617C74.882 28.3617 73.805 28.0819 72.8598 27.5223C71.9144 26.9628 71.1783 26.1933 70.6513 25.2142C70.14 24.2349 69.8843 23.1392 69.8843 21.9269C69.8843 20.6835 70.1478 19.5721 70.6747 18.593C71.217 17.6137 71.9608 16.8521 72.9062 16.3081C73.8515 15.7641 74.9131 15.4921 76.0909 15.4921C77.6405 15.4921 78.9732 15.9894 80.089 16.9842L80.2052 15.7485H83.0877V28.1053H80.2052L80.089 26.8696C79.5467 27.3514 78.9345 27.7244 78.2526 27.9887C77.5708 28.2373 76.8502 28.3617 76.0909 28.3617ZM73.2548 21.9269C73.2548 22.8905 73.557 23.6832 74.1614 24.3049C74.7814 24.9267 75.5717 25.2374 76.5324 25.2374C77.4778 25.2374 78.2526 24.9267 78.8569 24.3049C79.4769 23.6832 79.7868 22.8905 79.7868 21.9269C79.7868 20.9632 79.4769 20.1705 78.8569 19.5489C78.2526 18.9271 77.4778 18.6162 76.5324 18.6162C75.5717 18.6162 74.7814 18.9271 74.1614 19.5489C73.557 20.1705 73.2548 20.9632 73.2548 21.9269Z" fill="#1E1E1E"/>
<path d="M85.7785 15.7485H88.8702L88.9863 17.1241C89.4049 16.6112 89.9007 16.2226 90.474 15.9584C91.0475 15.6941 91.6751 15.562 92.357 15.562C92.8063 15.562 93.279 15.6242 93.7749 15.7485V18.826C93.1859 18.7173 92.7134 18.6628 92.357 18.6628C91.3496 18.6628 90.5516 18.9505 89.9627 19.5255C89.3892 20.0849 89.1025 20.8699 89.1025 21.8803V28.1053H85.7785V15.7485Z" fill="#1E1E1E"/>
<path d="M100.255 28.3618C99.062 28.3618 97.9927 28.082 97.0474 27.5224C96.1175 26.9474 95.397 26.1702 94.8855 25.1909C94.3741 24.2118 94.1185 23.1238 94.1185 21.927C94.1185 20.6991 94.382 19.5956 94.9088 18.6163C95.4356 17.6371 96.164 16.8755 97.0939 16.3315C98.0236 15.7719 99.0775 15.4922 100.255 15.4922C101.665 15.4922 102.905 15.904 103.974 16.7278V11.7852H107.299V28.1054H104.416L104.3 26.8697C103.757 27.3515 103.138 27.7245 102.44 27.9888C101.758 28.2374 101.03 28.3618 100.255 28.3618ZM97.4658 21.927C97.4658 22.8906 97.768 23.6832 98.3724 24.305C98.9922 24.9268 99.7748 25.2375 100.72 25.2375C101.681 25.2375 102.463 24.9268 103.068 24.305C103.688 23.6832 103.998 22.8906 103.998 21.927C103.998 20.9632 103.688 20.1706 103.068 19.549C102.463 18.9272 101.681 18.6163 100.72 18.6163C99.7748 18.6163 98.9922 18.9272 98.3724 19.549C97.768 20.1706 97.4658 20.9632 97.4658 21.927Z" fill="#1E1E1E"/>
<path d="M114.453 28.3383C112.888 28.3383 111.625 27.9732 110.664 27.2426C109.703 26.4965 109.192 25.4862 109.13 24.2117H112.454C112.485 24.6469 112.679 24.981 113.035 25.2142C113.407 25.4474 113.903 25.5639 114.523 25.5639C115.112 25.5639 115.584 25.463 115.941 25.2608C116.297 25.0589 116.475 24.7867 116.475 24.4448C116.475 24.103 116.305 23.8464 115.964 23.6755C115.623 23.5044 114.964 23.349 113.988 23.2092C112.361 22.9915 111.168 22.5798 110.408 21.9735C109.649 21.3517 109.269 20.4969 109.269 19.4089C109.269 18.2121 109.742 17.264 110.687 16.5645C111.648 15.8496 112.896 15.4921 114.43 15.4921C115.375 15.4921 116.227 15.663 116.987 16.005C117.746 16.3314 118.343 16.7977 118.777 17.4039C119.226 17.9944 119.474 18.6783 119.521 19.4555H116.313C116.251 19.0669 116.057 18.7717 115.731 18.5696C115.406 18.3674 114.957 18.2665 114.383 18.2665C113.81 18.2665 113.368 18.3598 113.058 18.5462C112.764 18.7173 112.617 18.9737 112.617 19.3157C112.617 19.6576 112.802 19.9296 113.174 20.1317C113.546 20.3182 114.205 20.4737 115.15 20.598C116.7 20.7844 117.862 21.1885 118.637 21.8103C119.427 22.4165 119.823 23.2714 119.823 24.3749C119.823 25.5873 119.327 26.5508 118.335 27.2658C117.343 27.9808 116.049 28.3383 114.453 28.3383Z" fill="#1E1E1E"/>
</g>
<defs>
<linearGradient id="paint0_linear_1404_62154" x1="5.69751" y1="37.5003" x2="31.1375" y2="12.2104" gradientUnits="userSpaceOnUse">
<stop stop-color="#7AAFFF"/>
<stop offset="1" stop-color="#642DFF"/>
</linearGradient>
<linearGradient id="paint1_linear_1404_62154" x1="5.69731" y1="37.4995" x2="31.1373" y2="12.2096" gradientUnits="userSpaceOnUse">
<stop stop-color="#7AAFFF"/>
<stop offset="1" stop-color="#642DFF"/>
</linearGradient>
<linearGradient id="paint2_linear_1404_62154" x1="3.11609" y1="3.5711" x2="35.8934" y2="17.8186" gradientUnits="userSpaceOnUse">
<stop stop-color="#FF8DE6"/>
<stop offset="1" stop-color="#4C3FE7"/>
</linearGradient>
<linearGradient id="paint3_linear_1404_62154" x1="3.11593" y1="3.57143" x2="35.8933" y2="17.819" gradientUnits="userSpaceOnUse">
<stop stop-color="#FF8DE6"/>
<stop offset="1" stop-color="#4C3FE7"/>
</linearGradient>
<clipPath id="clip0_1404_62154">
<rect width="120" height="40" fill="white"/>
</clipPath>
</defs>
</svg>

<svg xmlns="http://www.w3.org/2000/svg" width="120" height="40" fill="none"><g clip-path="url(#a)"><path fill="#fff" d="m25.185 12.259-7.634 7.65-2.215 2.218L4.205 33.28 1.992 31.06l11.13-11.152 2.215-2.218 7.634-7.65 2.214 2.218Z"/><path fill="url(#b)" d="M31.04 18.126a2.556 2.556 0 0 1 0 3.61L13.67 39.142c-.998 1-2.617 1-3.614 0l-5.85-5.862 20.979-21.02 5.856 5.867Z"/><path fill="url(#c)" d="M22.971 10.04 1.991 31.06.747 29.813a2.556 2.556 0 0 1 0-3.61L18.118 8.798c.997-1 2.616-1 3.613 0l1.241 1.243Z"/><path fill="#fff" d="m27.662 25.199-7.646-7.64-2.217-2.215L6.654 4.208 8.87 1.992l11.146 11.136 2.216 2.217 7.646 7.639-2.216 2.215Z"/><path fill="url(#d)" d="M21.798 31.058a2.552 2.552 0 0 1-3.609 0L.795 13.678a2.556 2.556 0 0 1 0-3.616l5.86-5.854L27.661 25.2l-5.864 5.86Z"/><path fill="url(#e)" d="M29.879 22.985 8.87 1.992 10.118.747a2.552 2.552 0 0 1 3.609 0l17.394 17.38a2.556 2.556 0 0 1 0 3.616l-1.242 1.242Z"/><path fill="#1E1E1E" d="M45.121 28.362c-1.24 0-2.355-.272-3.347-.816a6.087 6.087 0 0 1-2.302-2.308c-.557-.98-.836-2.083-.836-3.311 0-1.228.279-2.331.836-3.31a5.92 5.92 0 0 1 2.302-2.286c.992-.559 2.107-.839 3.347-.839 1.255 0 2.371.28 3.347.84a5.76 5.76 0 0 1 2.278 2.284c.543.964.814 2.068.814 3.311 0 .358-.023.723-.07 1.096h-9.46c.185.73.55 1.298 1.092 1.702.542.404 1.209.606 2 .606.526 0 1.006-.093 1.44-.28.45-.202.799-.466 1.046-.792h3.603a5.843 5.843 0 0 1-2.3 3.007c-1.101.73-2.364 1.096-3.79 1.096Zm3.115-7.6c-.186-.7-.55-1.244-1.092-1.633-.543-.404-1.217-.606-2.023-.606-.775 0-1.433.202-1.976.606-.527.389-.89.933-1.092 1.632h6.183ZM60.858 28.362c-1.566 0-2.976-.358-4.231-1.073a7.85 7.85 0 0 1-2.952-3.008c-.697-1.29-1.046-2.735-1.046-4.336 0-1.6.349-3.039 1.046-4.313a7.643 7.643 0 0 1 2.952-3.008c1.255-.73 2.665-1.095 4.23-1.095 1.349 0 2.581.264 3.697.792a7.614 7.614 0 0 1 2.836 2.262c.759.979 1.27 2.114 1.534 3.404h-3.65a4.24 4.24 0 0 0-1.65-2.192c-.775-.544-1.674-.816-2.697-.816-.898 0-1.704.218-2.417.653a4.44 4.44 0 0 0-1.65 1.772c-.403.746-.605 1.593-.605 2.541s.202 1.803.604 2.565a4.653 4.653 0 0 0 1.651 1.771c.713.42 1.519.63 2.417.63 1.039 0 1.953-.288 2.743-.863a4.423 4.423 0 0 0 1.674-2.308h3.603c-.248 1.322-.752 2.487-1.51 3.497a7.491 7.491 0 0 1-2.837 2.309c-1.131.544-2.379.816-3.742.816ZM76.09 28.362c-1.208 0-2.285-.28-3.23-.84a5.852 5.852 0 0 1-2.209-2.308c-.511-.979-.767-2.075-.767-3.287 0-1.243.264-2.355.79-3.334a5.85 5.85 0 0 1 2.232-2.285c.945-.544 2.007-.816 3.185-.816 1.55 0 2.882.498 3.998 1.492l.116-1.235h2.883v12.356h-2.883l-.116-1.235a6.014 6.014 0 0 1-1.836 1.119 6.261 6.261 0 0 1-2.162.373Zm-2.835-6.435c0 .964.302 1.756.906 2.378.62.622 1.41.933 2.371.933.946 0 1.72-.311 2.325-.933.62-.622.93-1.414.93-2.378 0-.964-.31-1.756-.93-2.378-.604-.622-1.38-.933-2.325-.933-.96 0-1.75.311-2.37.933-.605.622-.907 1.414-.907 2.378ZM85.779 15.748h3.091l.116 1.376a4.144 4.144 0 0 1 1.488-1.166 4.443 4.443 0 0 1 1.883-.396c.45 0 .922.062 1.418.187v3.077c-.589-.109-1.062-.163-1.418-.163-1.007 0-1.805.288-2.394.863-.574.559-.86 1.344-.86 2.354v6.225h-3.324V15.748ZM100.255 28.362c-1.193 0-2.262-.28-3.208-.84a5.902 5.902 0 0 1-2.162-2.331c-.51-.98-.767-2.067-.767-3.264 0-1.228.264-2.331.79-3.31a5.738 5.738 0 0 1 2.186-2.286c.93-.56 1.983-.839 3.161-.839 1.41 0 2.65.412 3.719 1.236v-4.943h3.324v16.32h-2.882l-.116-1.235a5.948 5.948 0 0 1-1.86 1.119 6.33 6.33 0 0 1-2.185.373Zm-2.79-6.435c0 .964.303 1.756.907 2.378.62.622 1.403.933 2.348.933.961 0 1.743-.311 2.348-.933.62-.622.93-1.414.93-2.378 0-.964-.31-1.756-.93-2.378-.605-.622-1.387-.933-2.348-.933-.945 0-1.728.311-2.348.933-.604.622-.906 1.414-.906 2.378ZM114.453 28.338c-1.565 0-2.828-.365-3.789-1.095-.961-.746-1.472-1.757-1.534-3.031h3.324c.031.435.225.77.581 1.002.372.234.868.35 1.488.35.589 0 1.061-.1 1.418-.303.356-.202.534-.474.534-.816 0-.342-.17-.599-.511-.77-.341-.17-1-.326-1.976-.466-1.627-.217-2.82-.63-3.58-1.235-.759-.622-1.139-1.477-1.139-2.565 0-1.197.473-2.145 1.418-2.844.961-.715 2.209-1.073 3.743-1.073.945 0 1.797.171 2.557.513.759.326 1.356.793 1.79 1.399.449.59.697 1.274.744 2.052h-3.208a1.22 1.22 0 0 0-.582-.886c-.325-.202-.774-.303-1.348-.303-.573 0-1.015.093-1.325.28a.835.835 0 0 0-.441.769c0 .342.186.614.557.816.372.186 1.031.342 1.976.466 1.55.187 2.712.59 3.487 1.212.79.607 1.186 1.462 1.186 2.565 0 1.212-.496 2.176-1.488 2.891-.992.715-2.286 1.073-3.882 1.073Z"/></g><defs><linearGradient id="b" x1="5.698" x2="31.137" y1="37.5" y2="12.21" gradientUnits="userSpaceOnUse"><stop stop-color="#7AAFFF"/><stop offset="1" stop-color="#642DFF"/></linearGradient><linearGradient id="c" x1="5.697" x2="31.137" y1="37.5" y2="12.21" gradientUnits="userSpaceOnUse"><stop stop-color="#7AAFFF"/><stop offset="1" stop-color="#642DFF"/></linearGradient><linearGradient id="d" x1="3.116" x2="35.893" y1="3.571" y2="17.819" gradientUnits="userSpaceOnUse"><stop stop-color="#FF8DE6"/><stop offset="1" stop-color="#4C3FE7"/></linearGradient><linearGradient id="e" x1="3.116" x2="35.893" y1="3.571" y2="17.819" gradientUnits="userSpaceOnUse"><stop stop-color="#FF8DE6"/><stop offset="1" stop-color="#4C3FE7"/></linearGradient><clipPath id="a"><path fill="#fff" d="M0 0h120v40H0z"/></clipPath></defs></svg>
